X: 1474
T: George Davis' Heel and Toe Polka
B: australian traditional tunes wiki
M:2/4
L:1/16
Q: 1/4=100
K:A
V:1 
B2||"A"A2B2 c3f|e2c2 c3d|"E7"e2fe d2B2|"A"A2c2 c3B|A2B2 c3f|e2c2 c3d|"E7"e2fe d2B2|"A"B2A2 A2e2|
"D"a2aa a2f2|"A"e2c2 c2d2|"E7"e2fe d2G2|"A"A2c2 c2e2|"D"a2aa a2f2|"A"e2c2 c2d2|"E7"e2fe d2G2|"A"B2A2 A2||
% abcbook-tune_id 6342d53a447a1f84b2707e4c


% abcbook-boost 0
% abcbook-tablature 
% abcbook-transpose 
% abcbook-lastupdated 1665324366903
% abcbook-soundfonts 
% abcbook-repeats 1
% NFF Book 2013

